X:1
T:Silver in the Stubble
M:2/4
L:1/8
K:D
 Bd cA| B2 B2| Bdc/2-B/2 A| B3 c| d3/2 c/2 BA| F/2 E3/2 DE| F/2 G3/2 EC|\
 B,2 FG| A3/2 A/2A/2 G3/2| F F2 E| Dd c3/2 A/2| B4| d3/2 c/2B/2 A3/2|\
 F/2E/2 D2 E| FF EC| B,4|

